modules/zondicons/icons/code.svg

<?xml version="1.0" encoding="UTF-8" standalone="no"?>
<svg width="20px" height="20px" viewBox="0 0 20 20" version="1.1" xmlns="http://www.w3.org/2000/svg" xmlns:xlink="http://www.w3.org/1999/xlink">
    <!-- Generator: Sketch 3.7.2 (28276) - http://www.bohemiancoding.com/sketch -->
    <title>code</title>
    <desc>Created with Sketch.</desc>
    <defs></defs>
    <g id="Page-1" stroke="none" stroke-width="1" fill="none" fill-rule="evenodd">
        <g id="code" fill="#000000">
            <path d="M0.707106781,10.7071068 L-2.00988464e-13,10 L5.48528137,4.51471863 L6.89949494,5.92893219 L2.82842712,10 L6.89949494,14.0710678 L5.48528137,15.4852814 L0.707106781,10.7071068 Z M19.2928932,10.7071068 L20,10 L14.5147186,4.51471863 L13.1005051,5.92893219 L17.1715729,10 L13.1005051,14.0710678 L14.5147186,15.4852814 L19.2928932,10.7071068 Z" id="Combined-Shape"></path>
        </g>
    </g>
</svg>

<svg width="20" height="20" viewBox="0 0 20 20" xmlns="http://www.w3.org/2000/svg"><path d="M.707 10.707L0 10l5.485-5.485L6.9 5.929 2.83 10l4.07 4.071-1.414 1.414-4.778-4.778zm18.586 0L20 10l-5.485-5.485L13.1 5.929 17.17 10l-4.07 4.071 1.414 1.414 4.778-4.778z" fill="#000" fill-rule="evenodd"/></svg>
